enix/_inc/system.svg

<svg xmlns="http://www.w3.org/2000/svg"><path d="m162.268 0c-1.179.008-2.377.141-3.516.382-9.103 1.941-16.127 10.299-16.127 20.334v159.286h14.675v-156.23c0-3.347 2.111-5.45 4.508-5.963 2.398-.51 7.588.254 11.237 7.338l69.324 134.599c7.042 13.669 17.778 21.41 28.816 19.874 5.519-.767 10.455-4.127 13.606-8.867 3.149-4.742 4.74-10.746 4.74-17.579v-152.791h-14.676v112.053c-1.777 3.466-7.886 2.803-10.319-2.217l-14.446-29.962h-32.178l-33.706-65.351c-4.34-8.422-11.339-13.428-18.422-14.602-1.181-.193-2.337-.311-3.516-.304zm217.759 0c4.355 6.113 8.978 12.599 15.286 21.402 13.838 19.316 32.282 44.985 50.522 70.396-31.731 44.225-49.375 68.867-63.286 88.278h18.037c15.155-21.142 27.107-37.807 54.269-75.668 27.201 37.914 38.639 53.807 54.344 75.668h49.146l-79.49-109.148c18.951-26.4 23.1-32.09 37.45-52.124 5.539-7.731 9.375-13.106 13.453-18.804h-18.036c-2.607 3.655-4.318 6.027-7.339 10.242-13.553 18.921-31.677 44.08-49.528 68.945-17.133-23.86-34.581-48.147-47.62-66.345-3.782-5.282-6.051-8.464-9.17-12.842zm-348.613.383c-17.283 0-31.414 14.131-31.414 31.414v116.715c0 17.282 14.131 31.49 31.414 31.49h90.191v-14.371h-65.809c-4.234 0-7.645-3.407-7.645-7.642v-62.599h53.047v-14.675s-74.124 0-86.522 0v-48.918c0-9.407 7.331-16.74 16.738-16.74h90.191v-14.674zm290.37 0v179.619h41.886v-99.745h-27.212v-79.874zm256.893 141.097c-11.765 0-21.327 9.485-21.327 21.248 0 11.765 9.562 21.325 21.327 21.325 11.763 0 21.327-9.56 21.323-21.325 0-11.763-9.56-21.248-21.323-21.248z" fill="#fff"/></svg>

<?xml version="1.0" encoding="utf-8"?>
<svg version="1.1" xmlns="http://www.w3.org/2000/svg">
  <g id="layer1">
    <path id="rect3208" d="M 162.268 0 C 161.089 0.008 159.891 0.141 158.752 0.382 C 149.649 2.323 142.625 10.681 142.625 20.716 L 142.625 180.002 L 157.3 180.002 L 157.3 23.772 C 157.3 20.425 159.411 18.322 161.808 17.809 C 164.206 17.299 169.396 18.063 173.045 25.147 L 242.369 159.746 C 249.411 173.415 260.147 181.156 271.185 179.62 C 276.704 178.853 281.64 175.493 284.791 170.753 C 287.94 166.011 289.531 160.007 289.531 153.174 L 289.531 0.383 L 274.855 0.383 L 274.855 112.436 C 273.078 115.902 266.969 115.239 264.536 110.219 L 250.09 80.257 L 217.912 80.257 L 184.206 14.906 C 179.866 6.484 172.867 1.478 165.784 0.304 C 164.603 0.111 163.447 -0.007 162.268 0 Z M 380.027 0 C 384.382 6.113 389.005 12.599 395.313 21.402 C 409.151 40.718 427.595 66.387 445.835 91.798 C 414.104 136.023 396.46 160.665 382.549 180.076 L 400.586 180.076 C 415.741 158.934 427.693 142.269 454.855 104.408 C 482.056 142.322 493.494 158.215 509.199 180.076 L 558.345 180.076 L 478.855 70.928 C 497.806 44.528 501.955 38.838 516.305 18.804 C 521.844 11.073 525.68 5.698 529.758 0 L 511.722 0 C 509.115 3.655 507.404 6.027 504.383 10.242 C 490.83 29.163 472.706 54.322 454.855 79.187 C 437.722 55.327 420.274 31.04 407.235 12.842 C 403.453 7.56 401.184 4.378 398.065 0 L 380.027 0 Z M 31.414 0.383 C 14.131 0.383 0 14.514 0 31.797 L 0 148.512 C 0 165.794 14.131 180.002 31.414 180.002 L 121.605 180.002 L 121.605 165.631 L 55.796 165.631 C 51.562 165.631 48.151 162.224 48.151 157.989 L 48.151 95.39 L 101.198 95.39 L 101.198 80.715 C 101.198 80.715 27.074 80.715 14.676 80.715 L 14.676 31.797 C 14.676 22.39 22.007 15.057 31.414 15.057 L 121.605 15.057 L 121.605 0.383 L 31.414 0.383 Z M 321.784 0.383 L 321.784 180.002 L 363.67 180.002 L 363.67 80.257 L 336.458 80.257 L 336.458 0.383 L 321.784 0.383 Z M 578.677 141.48 C 566.912 141.48 557.35 150.965 557.35 162.728 C 557.35 174.493 566.912 184.053 578.677 184.053 C 590.44 184.053 600.004 174.493 600 162.728 C 600 150.965 590.44 141.48 578.677 141.48 Z" style="fill: rgb(255, 255, 255);"/>
  </g>
</svg>
